Newaita-dark/.LP/32/audio-volume-muted-blocking.svg

<?xml version="1.0" encoding="UTF-8"?>
<svg xmlns="http://www.w3.org/2000/svg" xmlns:xlink="http://www.w3.org/1999/xlink" width="32pt" height="32pt" viewBox="0 0 32 32" version="1.1">
<defs>
<filter id="alpha" filterUnits="objectBoundingBox" x="0%" y="0%" width="100%" height="100%">
  <feColorMatrix type="matrix" in="SourceGraphic" values="0 0 0 0 1 0 0 0 0 1 0 0 0 0 1 0 0 0 1 0"/>
</filter>
<mask id="mask0">
  <g filter="url(#alpha)">
<rect x="0" y="0" width="32" height="32" style="fill:rgb(0%,0%,0%);fill-opacity:0.988235;stroke:none;"/>
  </g>
</mask>
<clipPath id="clip1">
  <rect x="0" y="0" width="32" height="32"/>
</clipPath>
<g id="surface5" clip-path="url(#clip1)">
<path style=" stroke:none;fill-rule:nonzero;fill:rgb(25.882354%,25.882354%,25.882354%);fill-opacity:1;" d="M 3.96875 9.511719 C 2.503906 9.511719 1.324219 10.691406 1.324219 12.15625 L 1.324219 20.09375 C 1.324219 21.5625 2.503906 22.742188 3.96875 22.742188 Z M 3.96875 9.511719 "/>
</g>
<mask id="mask1">
  <g filter="url(#alpha)">
<rect x="0" y="0" width="32" height="32" style="fill:rgb(0%,0%,0%);fill-opacity:0.988235;stroke:none;"/>
  </g>
</mask>
<clipPath id="clip2">
  <rect x="0" y="0" width="32" height="32"/>
</clipPath>
<g id="surface8" clip-path="url(#clip2)">
<path style=" stroke:none;fill-rule:nonzero;fill:rgb(93.725491%,32.549021%,31.37255%);fill-opacity:1;" d="M 14.554688 2.894531 L 14.554688 29.355469 C 16.019531 29.355469 17.199219 28.175781 17.199219 26.710938 L 17.199219 5.542969 C 17.199219 4.078125 16.019531 2.894531 14.554688 2.894531 Z M 14.554688 2.894531 "/>
</g>
<mask id="mask2">
  <g filter="url(#alpha)">
<rect x="0" y="0" width="32" height="32" style="fill:rgb(0%,0%,0%);fill-opacity:0.988235;stroke:none;"/>
  </g>
</mask>
<clipPath id="clip3">
  <rect x="0" y="0" width="32" height="32"/>
</clipPath>
<g id="surface12" clip-path="url(#clip3)">
<path style=" stroke:none;fill-rule:nonzero;fill:rgb(93.725491%,32.549021%,31.37255%);fill-opacity:0.976471;" d="M 20.460938 11.449219 C 19.941406 11.96875 19.941406 12.800781 20.460938 13.320312 L 23.265625 16.125 L 20.460938 18.933594 C 19.941406 19.453125 19.941406 20.285156 20.460938 20.804688 C 20.976562 21.324219 21.8125 21.324219 22.332031 20.804688 L 25.136719 17.996094 L 27.945312 20.804688 C 28.460938 21.324219 29.296875 21.324219 29.816406 20.804688 C 30.332031 20.285156 30.332031 19.453125 29.816406 18.933594 L 27.007812 16.125 L 29.816406 13.320312 C 30.332031 12.800781 30.332031 11.96875 29.816406 11.449219 C 29.296875 10.929688 28.460938 10.929688 27.945312 11.449219 L 25.136719 14.253906 L 22.332031 11.449219 C 21.8125 10.929688 20.976562 10.929688 20.460938 11.449219 Z M 20.460938 11.449219 "/>
</g>
</defs>
<g id="surface1">
<use xlink:href="#surface5" mask="url(#mask0)"/>
<path style=" stroke:none;fill-rule:evenodd;fill:rgb(25.882354%,25.882354%,25.882354%);fill-opacity:1;" d="M 13.226562 2.894531 C 13.214844 2.894531 13.203125 2.898438 13.191406 2.898438 C 12.90625 2.90625 12.628906 3.007812 12.402344 3.1875 L 5.789062 8.476562 C 5.476562 8.730469 5.292969 9.109375 5.292969 9.511719 L 5.292969 22.742188 C 5.292969 23.144531 5.476562 23.523438 5.789062 23.773438 L 12.402344 29.066406 C 12.65625 29.269531 12.949219 29.359375 13.230469 29.359375 L 13.230469 2.894531 C 13.230469 2.894531 13.226562 2.894531 13.226562 2.894531 Z M 13.226562 2.894531 "/>
<use xlink:href="#surface8" mask="url(#mask1)"/>
<use xlink:href="#surface12" mask="url(#mask2)"/>
</g>
</svg>

<svg xmlns="http://www.w3.org/2000/svg" xmlns:xlink="http://www.w3.org/1999/xlink" width="32pt" height="32pt" viewBox="0 0 32 32"><defs><filter id="a" filterUnits="objectBoundingBox" x="0%" y="0%" width="100%" height="100%"><feColorMatrix in="SourceGraphic" values="0 0 0 0 1 0 0 0 0 1 0 0 0 0 1 0 0 0 1 0"/></filter><mask id="f"><path fill-opacity=".988" d="M0 0h32v32H0z" filter="url(#a)"/></mask><clipPath id="b"><path d="M0 0h32v32H0z"/></clipPath><g id="e" clip-path="url(#b)"><path d="M3.969 9.512a2.639 2.639 0 0 0-2.645 2.644v7.938a2.64 2.64 0 0 0 2.645 2.648zm0 0" fill="#424242"/></g><mask id="h"><path fill-opacity=".988" d="M0 0h32v32H0z" filter="url(#a)"/></mask><clipPath id="c"><path d="M0 0h32v32H0z"/></clipPath><g id="g" clip-path="url(#c)"><path d="M14.555 2.895v26.46a2.639 2.639 0 0 0 2.644-2.644V5.543a2.642 2.642 0 0 0-2.644-2.648zm0 0" fill="#ef5350"/></g><mask id="j"><path fill-opacity=".988" d="M0 0h32v32H0z" filter="url(#a)"/></mask><clipPath id="d"><path d="M0 0h32v32H0z"/></clipPath><g id="i" clip-path="url(#d)"><path d="M20.46 11.45c-.519.519-.519 1.35 0 1.87l2.806 2.805-2.805 2.809c-.52.52-.52 1.351 0 1.87.516.52 1.352.52 1.871 0l2.805-2.808 2.808 2.809c.516.52 1.352.52 1.871 0a1.325 1.325 0 0 0 0-1.871l-2.808-2.809 2.808-2.805a1.325 1.325 0 0 0 0-1.87 1.318 1.318 0 0 0-1.87 0l-2.81 2.804-2.804-2.805a1.318 1.318 0 0 0-1.871 0zm0 0" fill="#ef5350" fill-opacity=".976"/></g></defs><use xlink:href="#e" mask="url(#f)"/><path d="M13.227 2.895l-.036.003a1.33 1.33 0 0 0-.789.29L5.79 8.476a1.334 1.334 0 0 0-.496 1.035v13.23c0 .403.184.781.496 1.031l6.613 5.293c.254.204.547.293.828.293V2.895h-.003zm0 0" fill-rule="evenodd" fill="#424242"/><use xlink:href="#g" mask="url(#h)"/><use xlink:href="#i" mask="url(#j)"/></svg>
